X:22
T:O'Keefe's
Z: id:dc-slide-23
M:6/8
L:1/8
K:A Dorian
A2e e2d|BAB d2B|A2e e2d|B2G GAB|!
A2e e2d|BAB d3|BAB d2e|B2A A3:|!
e2a a2b|a2g e2d|e2a a2b|a2g e2f|!
g3 gfe|dBA G3|BAB d2e|B2A A3:|!

